X: 34083
T: Reel De Roberval
R: reel
M: 4/4
K: Dmajor
F3 F E2 DE|F3 F E2 DE|FFDD B, A,3|[E8A,8]|
CCEA, CEA,C|EA,CE A,CEA,|EECA, B,A,3|F4 D4|
F3F E2 DE|F2 AF FBFF|AFFA E2 D2|[E8A,8]|
CCEA, CEA,C|EA,CE A,CEC|EECA, B, A,3|F4 D4|
d3d B2 AB|d3d B2 AB|dd d2 B2 A2|c4 ccAB|
c2 ec cfcc|eccf ccec|cecc B A3|d4 d2 AB
d2 fd dfAB|d2 fd dfAd|fdfd B2 A2|c4 ccAB|
c2 ec cfcc|ecca ccec|cbcc B2A2|d4 defg|
|:a2 f2 d2 B2|A2 FA ABAG|FAEA DFAd|g4 edef|
gagf e2 d2|c3 c c2 B2|ABAB cdeg|f4 defg|
a2 f2 d2 B2|AAFA Adeg|b2 g2 f2 e2|B3 B Befg|
a3 a fdfa|g2 e2 eceg|f2d2e2c2|1 d2 d defg:|2 d3 d d2 d2||

